!!!!SEGMENT: pl-gd--ee-2628--006-005_stabile-annibale--il-terzo-libro-de-madrigali-a-cinque-voci-et-spuntar-le-viole.krn
!!!cenid: 15xx:1072
!!!COM: Stabile, Annibale
!!!COM-rismid: pe30009662
!!!CDT: ~1535-1595/04
!!!CNT: Italian
!!!GTL: Il terzo libro de madrigali a cinque voci
!!!OTL: Et spuntar le viole
!!!OMV: 005
!!!PDT: 1585
!!!AGN:
!!!SMS-siglum: PL-GD
!!!SMS-shelfmark: Ee 2628
!!!SMS-variant:
!!!SMS-altvar:
!!!SMS-shelfwork: 006-005 G
!!!NIFC-rismid: 990060530
!!!URL-scan: https://repozytorium.nifc.pl/islandora/object/pl-gd%3A66139/datastream/PDF/view
!!!ONB-nifc: UWAGA: Canto: s. 90-101, Tenore: s. 246-257, Basso: s. 402-413, Quinto: s. 724-735. Dla głosu Alto proszę skorzystać z https://pbc.gda.pl/dlibra/publication/87582/edition/79411/content, str. 25-48. Uwaga: utwory podzielone wg spisu treści dostępnych na końcu ksiąg – proszę sprawdzać sąsiednie tytuły. Głos Quinto proszę umieszczać wg ambitusu (może się różnić w zależności od utworu).
!!!AIN: 1 alto 1 bass 1 soprn 1 tenor   1 vox
!!!key: F
**kern	**text	**kern	**text	**kern	**text	**kern	**text	**kern	**text
*part5	*part5	*part4	*part4	*part3	*part3	*part2	*part2	*part1	*part1
*staff5	*staff5	*staff4	*staff4	*staff3	*staff3	*staff2	*staff2	*staff1	*staff1
*I"BASSO	*	*I"TENORE	*	*I"ALTO	*	*I"QVINTO	*	*I"CANTO	*
*I'B	*	*I'T	*	*I'A	*	*I'V	*	*I'S	*
*ICvox	*	*ICvox	*	*ICvox	*	*ICvox	*	*ICvox	*
*Ibass	*	*Itenor  	*	*Ialto	*	*Ivox	*	*Isoprn	*
*clefF4	*	*clefC4	*	*clefC3	*	*clefC1	*	*clefC1	*
*k[b-]	*	*k[b-]	*	*k[b-]	*	*k[b-]	*	*k[b-]	*
*F:	*	*F:	*	*F:	*	*F:	*	*F:	*
*M4/4	*	*M4/4	*	*M4/4	*	*M4/4	*	*M4/4	*
*met(C)	*	*met(C)	*	*met(C)	*	*met(C)	*	*met(C)	*
=1-	=1-	=1-	=1-	=1-	=1-	=1-	=1-	=1-	=1-
!LO:TX:a:t=Seconda parte	!	!LO:TX:a:t=Seconda parte	!	!LO:TX:a:t=Seconda parte	!	!LO:TX:a:t=Seconda parte	!	!LO:TX:a:t=Seconda parte	!
0r	.	1r	.	2r	.	0r	.	4cc\	ET
.	.	.	.	.	.	.	.	4b-\	ſpun-
.	.	.	.	4f\	ET	.	.	2a\	-tar
.	.	.	.	4d\	ſpun-	.	.	.	.
=2-	=2-	=2-	=2-	=2-	=2-	=2-	=2-	=2-	=2-
.	.	2r	.	2B-/	-tar	.	.	4dd\	le
.	.	.	.	.	.	.	.	4cc\	vio-
.	.	4B-\	ET	4d\	le	.	.	2b-\	-le
.	.	4G/	ſpun-	4e\	vio-	.	.	.	.
=3-	=3-	=3-	=3-	=3-	=3-	=3-	=3-	=3-	=3-
2r	.	2F/	-tar	4.f\	.	4cc\	ET	1a	.
.	.	.	.	.	.	4a\	ſpun-	.	.
.	.	.	.	16e\	.	.	.	.	.
.	.	.	.	16d\	.	.	.	.	.
4F\	ET	4A/	vio-	4c\	.	2f/	-tar	.	.
4D/	ſpun-	4A/	-le	4d\	-le e	.	.	.	.
=4-	=4-	=4-	=4-	=4-	=4-	=4-	=4-	=4-	=4-
2C/	-tar	2c\	e	2e\	gi-	4g/	le	1r	.
.	.	.	.	.	.	4a\	vio-	.	.
*	*	*	*	*custos:f	*	*	*	*	*
!	!	!	!	!LO:LB:g=original	!	!	!	!	!
4BB-/	le	4d\	gi-	4f\	-glie	4b-\	.	.	.
4D/	vio-	2f\	-glie	4.F/	ro-	8a\	.	.	.
.	.	.	.	.	.	8g\	.	.	.
=5-	=5-	=5-	=5-	=5-	=5-	=5-	=5-	=5-	=5-
2F\	-le	.	.	.	.	2a\	.	2r	.
.	.	.	.	8G/	.	.	.	.	.
.	.	4f\	ro-	8A/	.	.	.	.	.
.	.	.	.	8B-/	.	.	.	.	.
2C/	.	2e\	.	2c/	.	2g/	-le	4r	.
.	.	.	.	.	.	.	.	4cc\	e
=6-	=6-	=6-	=6-	=6-	=6-	=6-	=6-	=6-	=6-
2r	.	2f\	-ſe	2F/	-ſe	4r	.	4.a\	gig-
.	.	.	.	.	.	4cc\	e	.	.
.	.	.	.	.	.	.	.	8b-\	-lie
*	*	*custos:c	*	*	*	*custos:a	*	*custos:cc	*
!	!	!LO:LB:g=original	!	!	!	!LO:LB:g=original	!	!LO:LB:g=original	!
2F\	e	4r	.	2f\	e	4.a\	gig-	4cc\	ro-
.	.	4c\	e	.	.	.	.	4f/	-ſe
.	.	.	.	.	.	8b-\	-lie	.	.
=7-	=7-	=7-	=7-	=7-	=7-	=7-	=7-	=7-	=7-
2C/	gi-	4.c\	gi-	2e\	gi-	4cc\	ro-	4r	.
*	*	*	*	*	*	*	*	*	*ij
.	.	.	.	.	.	4g\	-ſe	4cc\	e
.	.	8B-\	.	.	.	.	.	.	.
2F\	-glie	8A\	.	2f\	-glie	4r	.	4cc\	gi-
.	.	8G/	.	.	.	.	.	.	.
*	*	*	*	*	*	*	*ij	*	*
.	.	8F/	.	.	.	4cc\	e	4a\	-glie
.	.	8E/	.	.	.	.	.	.	.
*custos:BB-	*	*	*	*	*	*	*	*	*
!LO:LB:g=original	!	!	!	!	!	!	!	!	!
=8-	=8-	=8-	=8-	=8-	=8-	=8-	=8-	=8-	=8-
2BB-/	ro-	4D/	.	1f	ro-	4b-\	gi-	2dd\	ro-
.	.	4D/	-glie	.	.	4b-\	-glie	.	.
2FF/	-ſe	2F/	ro-	.	.	2a\	ro-	2cc\	-ſe
*	*	*	*	*	*	*	*	*	*Xij
=9-	=9-	=9-	=9-	=9-	=9-	=9-	=9-	=9-	=9-
4r	.	4C/	-ſe	2e\	-ſe	1g	-ſe	0r	.
4C/	Et	4c\	Et	.	.	.	.	.	.
4E\	riu-	4c\	ri-	2r	.	.	.	.	.
4E\	-eſ-	4G/	-ue	.	.	.	.	.	.
*	*	*custos:A	*	*	*	*	*Xij	*	*
!	!	!LO:LB:g=original	!	!	!	!	!	!	!
=10-	=10-	=10-	=10-	=10-	=10-	=10-	=10-	=10-	=10-
2F\	-tir-	2A/	ſtir-	4r	.	2cc\	Et	.	.
.	.	.	.	4c/	Et	.	.	.	.
*	*	*	*	*custos:e	*	*	*	*	*
!	!	!	!	!LO:LB:g=original	!	!	!	!	!
2C/	-ſi	2G/	-ſi	4e\	riu-	4cc\	riu-	.	.
.	.	.	.	4e\	-eſ-	4g/	-eſ-	.	.
=11-	=11-	=11-	=11-	=11-	=11-	=11-	=11-	=11-	=11-
4r	.	4.F/	d'o-	2f\	-tir-	2a\	-tir-	2cc\	Et
2F\	d'o-	.	.	.	.	.	.	.	.
.	.	8F/	-do-	.	.	.	.	.	.
*	*	*	*	*	*	*custos:g	*	*	*
!	!	!	!	!	!	!LO:LB:g=original	!	!	!
.	.	4G/	-ra-	2c\	-ſi	2g/	-ſi	4cc\	riu-
4E\	-do-	4C/	-to	.	.	.	.	4g/	-eſ-
=12-	=12-	=12-	=12-	=12-	=12-	=12-	=12-	=12-	=12-
4F\	-ra-	2F/	man-	4r	.	4f/	d'o-	4a\	-tir-
4FF/	-to	.	.	2f\	d'o-	4a\	-do-	4cc\	-ſi
*custos:C	*	*	*	*	*	*	*	*custos:cc	*
!LO:LB:g=original	!	!	!	!	!	!	!	!LO:LB:g=original	!
2C/	man-	4G/	-to	.	.	4g/	-ra-	4.cc\	d'o-
.	.	4c\	L	4e\	-do-	4g/	-to	.	.
.	.	.	.	.	.	.	.	8b-\	-do-
=13-	=13-	=13-	=13-	=13-	=13-	=13-	=13-	=13-	=13-
4D/	-to	4.F/	ter-	4f\	-ra-	1f	man-	4a\	-ra-
4BB-/	La	.	.	4F/	-to	.	.	4dd\	-to
.	.	8G/	.	.	.	.	.	.	.
2AA/	ter-	2A/	.	2c/	man-	.	.	2cc\	mon-
=14-	=14-	=14-	=14-	=14-	=14-	=14-	=14-	=14-	=14-
2GG/	-ra	1D	-ra	4d\	-to	4g/	-to	4b-\	-te
.	.	.	.	4B-/	la	4d/	La	4g/	La
2r	.	.	.	2A/	ter-	2d/	ter-	2f#X/	ter-
=15-	=15-	=15-	=15-	=15-	=15-	=15-	=15-	=15-	=15-
2r	.	0r	.	2G/	-ra	2d/	-ra	2g/	-ra
2C/	et	.	.	2c/	et	2e/	et	2g/	et
=16-	=16-	=16-	=16-	=16-	=16-	=16-	=16-	=16-	=16-
2AA/	que-	.	.	2c/	que-	2f/	que-	2a\	que-
2BB-/	-ſti	.	.	2B-/	-ſti	2d/	-ſti	2fny/	-ſti
=17-	=17-	=17-	=17-	=17-	=17-	=17-	=17-	=17-	=17-
2FF/	ſtar	4r	.	4A/	ſtar	2c/	ſtar	2f/	ſtar
.	.	4A/	et	4c/	e	.	.	.	.
2r	.	4B-\	que-	4d\	l'a-	4r	.	4r	.
.	.	4G/	-ſti	4B-/	-ura ei	4g/	e	4d/	e
*	*	*	*	*custos:c	*	*	*	*	*
!	!	!	!	!LO:LB:g=original	!	!	!	!	!
=18-	=18-	=18-	=18-	=18-	=18-	=18-	=18-	=18-	=18-
4r	.	2F/	ſtar	4c/	ven-	8a\	l'au-	8f/	l'au-
.	.	.	.	.	.	8g\	.	8e/	.
4F\	e	.	.	4A/	-ti	8f/	.	8d/	.
.	.	.	.	.	.	8e/	.	8c/	.
*	*	*	*	*	*	*custos:d	*	*	*
!	!	!	!	!	!	!LO:LB:g=original	!	!	!
4G\	l'aura	4r	.	2r	.	4d/	ra	4B-/	-ra
4E\	ei	4G/	e	.	.	2g/	ei	4c/	ei
*	*	*custos:A	*	*	*	*	*	*custos:c	*
!	!	!LO:LB:g=original	!	!	!	!	!	!LO:LB:g=original	!
=19-	=19-	=19-	=19-	=19-	=19-	=19-	=19-	=19-	=19-
2F\	ven-	4.A/	l'aura	1r	.	.	.	2c/	ven-
.	.	.	.	.	.	2f/	ven-	.	.
.	.	8F/	et	.	.	.	.	.	.
2C/	-ti	4A/	ven-	.	.	.	.	2c/	-ti
.	.	4G/	-ti	.	.	4e/	-ti	.	.
=20-	=20-	=20-	=20-	=20-	=20-	=20-	=20-	=20-	=20-
0r	.	2r	.	4r	.	0r	.	2r	.
.	.	.	.	2e\	Quan-	.	.	.	.
.	.	2A/	Quan-	.	.	.	.	2cc\	Quan-
.	.	.	.	4c/	-do	.	.	.	.
=21-	=21-	=21-	=21-	=21-	=21-	=21-	=21-	=21-	=21-
.	.	2F/	-do	4r	.	.	.	2a\	-do
.	.	.	.	4f\	la	.	.	.	.
.	.	4r	.	4e\	Don-	.	.	4r	.
.	.	4B-\	la	4d\	-na	.	.	4dd\	la
=22-	=22-	=22-	=22-	=22-	=22-	=22-	=22-	=22-	=22-
2r	.	4A/	Don-	2e\	mia	2r	.	4cc\	Don-
.	.	4G/	-na	.	.	.	.	4b-\	-na
2F\	Quan-	2A/	mia	2f\	Quan-	2cc\	Qan-	2a\	mia
=23-	=23-	=23-	=23-	=23-	=23-	=23-	=23-	=23-	=23-
2A\	-do	0r	.	4e\	-do-	2a\	-do	1r	.
.	.	.	.	4A/	-la	.	.	.	.
*custos:E	*	*	*	*	*	*	*	*	*
!LO:LB:g=original	!	!	!	!	!	!	!	!	!
4r	.	.	.	4B-/	Don-	4r	.	.	.
4E\	la	.	.	4c/	-na	4cc\	la	.	.
=24-	=24-	=24-	=24-	=24-	=24-	=24-	=24-	=24-	=24-
4F\	Don-	.	.	2d\	mia	4a\	Don-	2r	.
4G\	-na	.	.	.	.	4b-\	-na	.	.
2A\	mia	.	.	4r	.	2cc\	mia	2a\	la
.	.	.	.	4f\	la	.	.	.	.
=25-	=25-	=25-	=25-	=25-	=25-	=25-	=25-	=25-	=25-
2r	.	4r	.	4d\	Don-	2r	.	4f/	Don-
.	.	2c\	Quan-	4e\	-na	.	.	4g/	-na
*	*	*	*	*custos:f	*	*	*	*	*
!	!	!	!	!LO:LB:g=original	!	!	!	!	!
2F\	Quan-	.	.	2f\	mia	4r	.	2a\	mia
.	.	2A/	-do-	.	.	2a\	Quan-	.	.
=26-	=26-	=26-	=26-	=26-	=26-	=26-	=26-	=26-	=26-
2D/	-do	.	.	0r	.	.	.	1r	.
.	.	4d\	-mia	.	.	4f/	-do	.	.
4r	.	4c\	Quan-	.	.	8g/	la	.	.
.	.	.	.	.	.	8a\	.	.	.
4G\	la	4B-\	-do	.	.	8b-\	.	.	.
.	.	.	.	.	.	8g\	.	.	.
=27-	=27-	=27-	=27-	=27-	=27-	=27-	=27-	=27-	=27-
4F\	Don-	2c\	mia	.	.	4a\	.	4r	.
*	*	*	*	*	*	*	*	*	*ij
4E\	-na	.	.	.	.	2g/	Don-	4cc\	la
2D/	mia	2d\	l'on-	.	.	.	.	4b-\	Don-
.	.	.	.	.	.	4f#X/	-na	4a\	-na
*	*	*custos:G	*	*	*	*custos:g	*	*	*
!	!	!LO:LB:g=original	!	!	!	!LO:LB:g=original	!	!	!
=28-	=28-	=28-	=28-	=28-	=28-	=28-	=28-	=28-	=28-
4r	.	4G/	-de	4r	.	4g/	mia	2g\	mia
!	!	!LO:N:acc=#	!	!	!	!	!	!	!
4G\	l'on-	4Bn\	fa-	4g\	l'on-	4d/	l'on-	.	.
*	*	*	*	*	*	*	*	*custos:cc	*Xij
!	!	!	!	!	!	!	!	!LO:LB:g=original	!
4C/	-de	4.c\	-mo-	8g\	-de	4e/	-de	4r	.
.	.	.	.	8f\	.	.	.	.	.
4E\	fa-	.	.	8e\	.	4g/	fa-	4cc\	l'on-
.	.	8B\	.	8d\	.	.	.	.	.
=29-	=29-	=29-	=29-	=29-	=29-	=29-	=29-	=29-	=29-
4.F\	mo-	2A\	.	4c/	.	2fny/	-mo-	4cc\	-de
.	.	.	.	4c/	ſa-	.	.	4cc\	fa-
8E\	.	.	.	.	.	.	.	.	.
!	!	!	!	!LO:N:acc=#	!	!	!	!	!
2D\	.	4F/	-ſe	2Bn/	-mo-	4f/	-ſe	2dd\	-mo-
.	.	4F/	Sol-	.	.	4d/	Sol-	.	.
*custos:C	*	*	*	*	*	*	*	*	*
!LO:LB:g=original	!	!	!	!	!	!	!	!	!
=30-	=30-	=30-	=30-	=30-	=30-	=30-	=30-	=30-	=30-
4C/	-ſe	8G/	-cò	4c/	-ſe	4e/	-cò	2g/	-ſe
.	.	8F/	.	.	.	.	.	.	.
4C/	Sol-	8G/	.	4e\	Sol-	4c/	del	.	.
.	.	8A/	.	.	.	.	.	.	.
2.BB-/	-cò	8B-y\	.	8d\	-cò	4f/	Te-	4r	.
.	.	8A\	.	8c\	.	.	.	.	.
.	.	8B-\	.	8d\	.	4d/	-bro	4f/	Sol-
.	.	8c\	.	8e\	.	.	.	.	.
=31-	=31-	=31-	=31-	=31-	=31-	=31-	=31-	=31-	=31-
.	.	4d\	.	4f\	.	1r	.	4b-\	-cò
4C/	del	4c\	del	4e\	-del	.	.	4g/	del
!	!	!LO:N:acc=#	!	!	!	!	!	!	!
2GG/	Te-	2Bn\	Te-	2d\	Te-	.	.	2g/	Te-
=32-	=32-	=32-	=32-	=32-	=32-	=32-	=32-	=32-	=32-
1C	-bro	2c\	-bro	1e	-bro	2r	.	2g/	-bro
.	.	2c\	et	.	.	2g/	et	2cc\	et
=33-	=33-	=33-	=33-	=33-	=33-	=33-	=33-	=33-	=33-
2r	.	4.F/	con	2r	.	4.cc\	con	4.a\	con
.	.	8G/	ce-	.	.	8b-\	ce-	8b-\	ce-
*	*	*custos:A	*	*	*	*	*	*	*
!	!	!LO:LB:g=original	!	!	!	!	!	!	!
2F\	et	4A\	-le-	2f\	et	4a\	-le-	4cc\	-le-
.	.	4c\	-ſte	.	.	4f/	-ſste	4a\	-ſte
=34-	=34-	=34-	=34-	=34-	=34-	=34-	=34-	=34-	=34-
4.BB-/	con	2B-y\	can-	4.d\	con	2f/	can-	2dd\	can-
8C/	ce-	.	.	8e\	ce-	.	.	.	.
*	*	*	*	*custos:f	*	*	*	*	*
!	!	!	!	!LO:LB:g=original	!	!	!	!	!
4D/	-le-	4F/	-to	4f\	-le-	4d/	-to	2b-\	-to
*	*	*	*ij	*	*	*	*	*	*
4BB-/	-ſte	4B-\	et	4f\	-ſte	4dd\	et	.	.
*	*	*	*	*	*	*custos:cc	*	*	*ij
!	!	!	!	!	!	!LO:LB:g=original	!	!	!
=35-	=35-	=35-	=35-	=35-	=35-	=35-	=35-	=35-	=35-
2F\	can-	4.A\	con	2f\	can-	4.cc\	con	2r	.
.	.	8B-\	ce-	.	.	8b-\	ce-	.	.
4FF/	-to	4c\	-le-	4f\	-to	4a\	-le-	4r	.
*	*ij	*	*	*	*ij	*	*	*	*
4F\	et	4A\	-ſte	4f\	et	4a\	-ſte	4cc\	et
*	*	*	*	*	*	*	*	*custos:dd	*
!	!	!	!	!	!	!	!	!LO:LB:g=original	!
=36-	=36-	=36-	=36-	=36-	=36-	=36-	=36-	=36-	=36-
4.BB-/	con	2F/	can-	4.d\	con	4.b-\	can-	4.dd\	con
8C/	ce-	.	.	8e\	ce-	16a\	.	8cc\	ce-
.	.	.	.	.	.	16g\	.	.	.
4D\	-le-	2F/	-to	4f\	-le-	8f/	.	4b-\	-le-
.	.	.	.	.	.	8g/	.	.	.
4F\	-ſte	.	.	4f\	-ſte	8a\	.	4a\	-ſte
.	.	.	.	.	.	8b-\	.	.	.
*custos:C	*	*	*Xij	*	*	*	*	*	*
!LO:LB:g=original	!	!	!	!	!	!	!	!	!
=37-	=37-	=37-	=37-	=37-	=37-	=37-	=37-	=37-	=37-
2C/	can-	2r	.	2e\	can-	2cc\	.	2g/	can-
2FF/	-to	4r	.	2f\	-to	4cc\	to	4a\	-to
*	*Xij	*	*	*	*Xij	*	*	*	*Xij
.	.	4F/	Fè	.	.	4cc\	Fè	4a\	Fè
=38-	=38-	=38-	=38-	=38-	=38-	=38-	=38-	=38-	=38-
2r	.	2B-\	ſtar	4r	.	2dd\	ſtar	1.f	ſtar
.	.	.	.	4d\	Fè	.	.	.	.
2FF/	Fè	2A/	i	4f\	ſtar	2cc\	i	.	.
.	.	.	.	4F/	i	.	.	.	.
=39-	=39-	=39-	=39-	=39-	=39-	=39-	=39-	=39-	=39-
2BB-/	ſtar	2d\	pe-	4.F/	pe-	2b-\	pe-	.	.
.	.	.	.	8G/	.	.	.	.	.
2AA/	i	2c\	-ſci	4.A/	.	2cc\	-ſci	2f/	i
.	.	.	.	8G/	.	.	.	.	.
=40-	=40-	=40-	=40-	=40-	=40-	=40-	=40-	=40-	=40-
2D/	pa-	2r	.	8F/	.	8a\	ad	2.f/	peſ-
.	.	.	.	8E/	.	8g\	a-	.	.
.	.	.	.	4F/	.	8a\	.	.	.
.	.	.	.	.	.	8b-\	.	.	.
*	*	*	*ij	*custos:G	*	*	*	*	*
!	!	!	!	!LO:LB:g=original	!	!	!	!	!
2C/	-ſci	4r	.	4G/	-ſci	1cc\	.	.	.
.	.	4C/	Fè	4g\	ad	.	.	4e/	-ci
=41-	=41-	=41-	=41-	=41-	=41-	=41-	=41-	=41-	=41-
1r	.	4F/	ſtar	4a\	aſ-	.	.	4f/	ad
.	.	4E/	i	4g\	-col-	.	.	4g/	aſcol-
*	*	*custos:A	*	*	*	*	*	*	*
!	!	!LO:LB:g=original	!	!	!	!	!	!	!
.	.	2A/	pe-	8e\	-tar-	2cc\	ſcol-	2a\	-tar
.	.	.	.	8d\	.	.	.	.	.
.	.	.	.	8e\	.	.	.	.	.
.	.	.	.	8f\	.	.	.	.	.
*	*ij	*	*	*	*	*custos:cc	*	*	*
!	!	!	!	!	!	!LO:LB:g=original	!	!	!
=42-	=42-	=42-	=42-	=42-	=42-	=42-	=42-	=42-	=42-
2C/	Fè	2G/	-ſci	4g\	.	1cc	-tar	4r	.
.	.	.	.	4e\	-Fè-	.	.	4g/	ad
4F\	ſtar	2r	.	4f\	-ſtar	.	.	4a\	aſ-
4E\	i	.	.	4g\	i	.	.	4g/	-col-
*	*	*	*Xij	*	*	*	*	*	*
=43-	=43-	=43-	=43-	=43-	=43-	=43-	=43-	=43-	=43-
2A\	pa-	4r	.	4.c/	pe-	2r	.	8e/	-tar
.	.	.	.	.	.	.	.	8d/	.
.	.	4c\	ad	.	.	.	.	8e/	.
.	.	.	.	8A/	.	.	.	8f/	.
*	*	*	*	*	*	*	*	*custos:g	*
!	!	!	!	!	!	!	!	!LO:LB:g=original	!
4G\	-ſci	4d\	aſ-	4B-y/	.	4r	.	2g/	.
*	*Xij	*	*	*	*	*	*	*	*
4C/	ad	4c\	-col-	4G/	-ſci	4c/	Fè	.	.
=44-	=44-	=44-	=44-	=44-	=44-	=44-	=44-	=44-	=44-
4D/	aſ-	8A/	-tar	4F/	ad	4f/	ſtar	1r	.
.	.	8G/	.	.	.	.	.	.	.
4C/	-col-	8A\	.	2c/	aſ-	4e/	i	.	.
.	.	8B-\	.	.	.	.	.	.	.
8AA/	-tar	2c\	.	.	.	2a\	pe-	.	.
8GG/	.	.	.	.	.	.	.	.	.
8AA/	.	.	.	2f\	-col-	.	.	.	.
8BB-/	.	.	.	.	.	.	.	.	.
*custos:C	*	*	*	*	*	*	*	*	*
!LO:LB:g=original	!	!	!	!	!	!	!	!	!
=45-	=45-	=45-	=45-	=45-	=45-	=45-	=45-	=45-	=45-
0C	.	2r	.	.	.	4g/	-ſsi	2r	.
.	.	.	.	8e\	-tar	4g/	ad	.	.
.	.	.	.	8d\	.	.	.	.	.
*	*	*	*	*custos:e	*	*	*	*	*
!	!	!	!	!LO:LB:g=original	!	!	!	!	!
.	.	2c\	ad	2e\	.	4a\	aſ-	4r	.
.	.	.	.	.	.	4g/	-col-	4g/	ad
=46-	=46-	=46-	=46-	=46-	=46-	=46-	=46-	=46-	=46-
.	.	2.c\	aſ-	2r	.	8e/	-tar-	4a\	aſ-
.	.	.	.	.	.	8d/	.	.	.
.	.	.	.	.	.	8e/	.	4g/	-col-
.	.	.	.	.	.	8f/	.	.	.
.	.	.	.	2c/	gli	4.g/	.	8e/	-tar-
.	.	.	.	.	.	.	.	8d/	.
.	.	4C/	-col-	.	.	.	.	8e/	.
.	.	.	.	.	.	8f/	.	8f/	.
=47-	=47-	=47-	=47-	=47-	=47-	=47-	=47-	=47-	=47-
2r	.	4E/	-tar	1c	accen-	4e/	.	2g/	gli
.	.	4E/	gli	.	.	2g/	-gli	.	.
2FF/	gli	8F/	ac-	.	.	.	.	2cc\	ac-
.	.	8G/	-cen-	.	.	.	.	.	.
.	.	8A/	.	.	.	2f/	ac-	.	.
.	.	8F/	.	.	.	.	.	.	.
=48-	=48-	=48-	=48-	=48-	=48-	=48-	=48-	=48-	=48-
1C	accen-	1G	.	00c	-ti,	.	.	1cc	-cen-
.	.	.	.	.	.	8e/	-cen-	.	.
.	.	.	.	.	.	8d/	.	.	.
.	.	.	.	.	.	2e/	.	.	.
=49-	=49-	=49-	=49-	=49-	=49-	=49-	=49-	=49-	=49-
00FF	-ti,	00F	ti	.	.	00f	ti,	00a	-ti,-
=50-	=50-	=50-	=50-	=50-	=50-	=50-	=50-	=50-	=50-
.	.	.	.	1ryy	.	.	.	.	.
==	==	==	==	==	==	==	==	==	==
*-	*-	*-	*-	*-	*-	*-	*-	*-	*-
!!!system-decoration: [(s1,s2,s3,s4,s5)]
!!!ENC: Marta Opryszak
!!!END: 2022-07-10
!!!ENC: Natalia Wrzos
!!!END: 2022-08-01
